arkscan/icons/hitbtc.svg

<svg viewBox="0 0 20 20" fill="none" xmlns="http://www.w3.org/2000/svg">
  <path d="M7.52417 4.44727L6.58349 8.12413L0.289062 8.96257L7.52417 4.44727Z" fill="#57BAE5" />
  <path d="M10.8005 12.5983L8.76367 11.7354L9.22993 19.2731L10.8005 12.5983Z" fill="#005472" />
  <path d="M6.58349 8.12402L4.92706 11.6046L0.289062 8.96246L6.58349 8.12402Z" fill="#34AFE4" />
  <path d="M8.7641 11.7354L4.92773 11.6045L9.23035 19.2731L8.7641 11.7354Z" fill="#0076A7" />
  <path d="M6.58416 8.12402L8.7641 11.7354L4.92773 11.6046L6.58416 8.12402Z" fill="#009DE2" />
  <path d="M7.52467 4.44727L12.7475 5.11802L6.58398 8.12413L7.52467 4.44727Z" fill="#7ACDF2" />
  <path d="M18.4641 2.77832L15.1758 6.68831L15.4089 3.06871L18.4641 2.77832Z" fill="#7ACDF2" />
  <path d="M18.4648 2.7784L20.289 0.537109L19.8881 2.95427L18.4648 2.7784Z" fill="#7ACDF2" />
  <path d="M16.6934 4.81102L19.8876 2.95419L18.4643 2.77832L16.6934 4.81102Z" fill="#00ABE7" />
  <path d="M10.8005 12.5985L10.9559 8.11182L8.76367 11.7355L10.8005 12.5985Z" fill="#0076A7" />
  <path d="M10.9561 8.11182L8.76392 11.7355L6.58398 8.12409L10.9561 8.11182Z" fill="#008DBE" />
  <path d="M12.7475 5.11768L10.9561 8.11152L6.58398 8.12379L12.7475 5.11768Z" fill="#57BAE5" />
  <path d="M10.9562 8.11182L10.8008 12.5985L14.8089 16.7989L10.9562 8.11182Z" fill="#00698D" />
  <path d="M16.9057 14.4512L14.7871 9.06885L14.8076 16.7988L16.9057 14.4512Z" fill="#09A1CB" />
  <path d="M15.1759 6.68848L14.7874 9.06883L10.9551 8.11178L15.1759 6.68848Z" fill="#09A1CB" />
  <path d="M17.1184 9.92362L14.7871 9.06883L15.1757 6.68848L17.1184 9.92362Z" fill="#8BDAFF" />
  <path d="M17.9539 14.2998L15.4141 10.1362H16.8619L17.9539 14.2998Z" fill="#7ACDF2" />
  <path d="M13.2246 4.23448L15.1755 6.68845L15.4086 3.06885L13.2246 4.23448Z" fill="#57BAE5" />
  <path d="M14.7874 9.06886L10.9551 8.11182L14.8078 16.7989L14.7874 9.06886Z" fill="#008DBE" />
  <path d="M16.9062 14.4512L17.7528 14.9338L14.8203 16.7988L16.9062 14.4512Z" fill="#0076A7" />
  <path d="M17.9527 14.2549L14.7871 9.06885L16.9057 14.4512L17.9527 14.2549Z" fill="#57BAE5" />
  <path d="M13.225 4.23438L10.9551 8.11164L15.1759 6.68834L13.225 4.23438Z" fill="#7ACDF2" />
</svg>

<svg viewBox="0 0 20 20" fill="none" xmlns="http://www.w3.org/2000/svg"><path d="m7.524 4.447-.94 3.677-6.295.839 7.235-4.516Z" fill="#57BAE5"/><path d="m10.8 12.598-2.036-.863.466 7.538 1.57-6.675Z" fill="#005472"/><path d="m6.583 8.124-1.656 3.48L.29 8.963l6.294-.838Z" fill="#34AFE4"/><path d="m8.764 11.735-3.836-.13 4.302 7.668-.466-7.538Z" fill="#0076A7"/><path d="m6.584 8.124 2.18 3.611-3.836-.13 1.656-3.481Z" fill="#009DE2"/><path d="m7.525 4.447 5.223.671-6.164 3.006.94-3.677ZM18.464 2.778l-3.288 3.91.233-3.62 3.055-.29ZM18.465 2.778l1.824-2.24-.4 2.416-1.424-.176Z" fill="#7ACDF2"/><path d="m16.693 4.811 3.195-1.857-1.424-.176-1.77 2.033Z" fill="#00ABE7"/><path d="m10.8 12.598.156-4.486-2.192 3.623 2.037.864Z" fill="#0076A7"/><path d="m10.956 8.112-2.192 3.623-2.18-3.61 4.372-.013Z" fill="#008DBE"/><path d="m12.748 5.118-1.792 2.994-4.372.012 6.164-3.006Z" fill="#57BAE5"/><path d="m10.956 8.112-.155 4.486 4.008 4.2-3.853-8.686Z" fill="#00698D"/><path d="M16.906 14.451 14.787 9.07l.02 7.73 2.099-2.348ZM15.176 6.688l-.389 2.38-3.832-.956 4.22-1.424Z" fill="#09A1CB"/><path d="m17.118 9.924-2.33-.855.388-2.38 1.942 3.235Z" fill="#8BDAFF"/><path d="m17.954 14.3-2.54-4.164h1.448l1.092 4.164Z" fill="#7ACDF2"/><path d="m13.225 4.234 1.95 2.454.234-3.62-2.184 1.166Z" fill="#57BAE5"/><path d="m14.787 9.069-3.832-.957 3.853 8.687-.02-7.73Z" fill="#008DBE"/><path d="m16.906 14.451.847.483-2.933 1.865 2.086-2.348Z" fill="#0076A7"/><path d="m17.953 14.255-3.166-5.186 2.119 5.382 1.047-.196Z" fill="#57BAE5"/><path d="m13.225 4.234-2.27 3.878 4.22-1.424-1.95-2.454Z" fill="#7ACDF2"/></svg>
